fs/access_time_20_filled.svg

<svg viewBox="0 0 20 20" fill="none" xmlns="http://www.w3.org/2000/svg" height="1em" width="1em">
  <path d="M10 18C14.4183 18 18 14.4183 18 10C18 5.58172 14.4183 2 10 2C5.58172 2 2 5.58172 2 10C2 14.4183 5.58172 18 10 18ZM6.98811 8.60832C6.92883 8.87568 6.66509 9.04596 6.39655 8.98919C6.12638 8.93207 5.95367 8.66674 6.01079 8.39657L6.01101 8.39557L6.01124 8.39447L6.01178 8.39199C6.02628 8.32729 6.04421 8.26402 6.08271 8.16406C6.13026 8.04058 6.20855 7.87389 6.33261 7.70453C6.58972 7.35354 7.04179 7 7.75359 7C8.30575 7 8.75549 7.21512 9.06185 7.56126C9.35994 7.89804 9.49998 8.33261 9.49998 8.75C9.49998 9.099 9.431 9.39794 9.29507 9.65577C9.15987 9.91222 8.97453 10.0973 8.78808 10.2414C8.63051 10.3631 8.45565 10.4669 8.30894 10.5539L8.25222 10.5877C8.08366 10.6883 7.94599 10.7752 7.82722 10.878C7.43333 11.219 7.1749 11.58 7.06318 12H8.99998C9.27612 12 9.49998 12.2239 9.49998 12.5C9.49998 12.7761 9.27612 13 8.99998 13H6.49999C6.22384 13 5.99999 12.7761 5.99999 12.5C5.99999 11.4894 6.4747 10.7262 7.17274 10.122C7.36392 9.95647 7.56872 9.8311 7.73953 9.7291L7.79781 9.69436C7.95157 9.60281 8.07076 9.53185 8.1768 9.44994C8.28786 9.36416 8.36129 9.28271 8.41048 9.18941C8.45894 9.09749 8.49998 8.9635 8.49998 8.75C8.49998 8.54779 8.43104 8.35736 8.31304 8.22404C8.20332 8.10008 8.02986 8 7.75359 8C7.42321 8 7.24848 8.14646 7.13933 8.29547C7.08025 8.37612 7.04055 8.45943 7.01589 8.52345C7.00383 8.55478 6.9961 8.57958 6.99184 8.59446C6.98973 8.60185 6.98811 8.60832 6.98811 8.60832ZM11 7C11.2761 7 11.5 7.22386 11.5 7.5V10H13V7.5C13 7.22386 13.2239 7 13.5 7C13.7761 7 14 7.22386 14 7.5V12.5C14 12.7761 13.7761 13 13.5 13C13.2239 13 13 12.7761 13 12.5V11H11C10.7239 11 10.5 10.7761 10.5 10.5V7.5C10.5 7.22386 10.7239 7 11 7Z" fill="#212121"/>
</svg>

<svg viewBox="0 0 20 20" fill="none" xmlns="http://www.w3.org/2000/svg" height="1em" width="1em">
  <path d="M10 18a8 8 0 1 0 0-16 8 8 0 0 0 0 16ZM6.988 8.608a.5.5 0 0 1-.977-.211v-.005a1.998 1.998 0 0 1 .32-.687A1.7 1.7 0 0 1 7.756 7c.552 0 1.001.215 1.308.561.298.337.438.772.438 1.189 0 .349-.069.648-.205.906a1.79 1.79 0 0 1-.507.585 4.713 4.713 0 0 1-.48.313l-.056.034c-.168.1-.306.187-.425.29-.394.341-.652.702-.764 1.122H9a.5.5 0 0 1 0 1H6.5a.5.5 0 0 1-.5-.5c0-1.01.475-1.774 1.173-2.378.19-.166.396-.29.567-.393l.058-.035a3.66 3.66 0 0 0 .379-.244.804.804 0 0 0 .233-.26.917.917 0 0 0 .09-.44.798.798 0 0 0-.187-.526C8.203 8.1 8.03 8 7.753 8c-.33 0-.505.146-.614.295a.999.999 0 0 0-.147.3l-.004.013ZM11 7a.5.5 0 0 1 .5.5V10H13V7.5a.5.5 0 0 1 1 0v5a.5.5 0 0 1-1 0V11h-2a.5.5 0 0 1-.5-.5v-3A.5.5 0 0 1 11 7Z" fill="#212121"/>
</svg>
